static/img/iceberg-icon.svg

<svg xmlns="http://www.w3.org/2000/svg" width="24" height="24" fill="none" viewBox="0 0 24 24"><circle cx="12" cy="12" r="12" fill="#3b82f6"/><path fill="#fff" d="m7 7 5-3 5 3v7l-5 3-5-3z"/><path stroke="#3b82f6" d="M12 4v6m0 7v-7m0 0-5 4m5-4 5 4"/></svg>

<svg width="24" height="24" viewBox="0 0 24 24" fill="none" xmlns="http://www.w3.org/2000/svg">
    <circle cx="12" cy="12" r="12" fill="#3B82F6" />
    <path d="M7 7L12 4L17 7V14L12 17L7 14V7Z" fill="white" />
    <path d="M12 4V10M12 17V10M12 10L7 14M12 10L17 14" stroke="#3B82F6" />
</svg>
